public/img/icons/prize5.svg

<svg width="81" height="24" viewBox="0 0 81 24" fill="none" xmlns="http://www.w3.org/2000/svg">
<path d="M9.29647 23.8026C7.76047 23.8026 6.46981 23.6106 5.42448 23.2266C4.37915 22.8213 3.52582 22.288 2.8645 21.6266C2.22451 20.9653 1.75518 20.1973 1.45653 19.3226C1.15787 18.4266 0.997884 17.488 0.976562 16.5066H6.54456C6.58722 17.36 6.85388 18.0533 7.34454 18.5866C7.8352 19.0986 8.48586 19.3546 9.29653 19.3546C10.2992 19.3546 11.0139 19.0453 11.4405 18.4266C11.8885 17.7866 12.1126 16.8906 12.1126 15.7386C12.1126 14.5226 11.8459 13.68 11.3126 13.2106C10.7793 12.72 10.1073 12.4746 9.29661 12.4746C8.16595 12.4746 7.29127 12.912 6.6726 13.7866L1.4566 13.7866L1.45675 0.986618L16.6888 0.986618L16.6887 5.69062L6.9927 5.69062L6.99266 8.82662C7.88867 8.16529 9.11534 7.83462 10.6727 7.83462C11.7393 7.83462 12.7207 8.00529 13.6167 8.34662C14.5127 8.66662 15.2807 9.15729 15.9206 9.81862C16.5606 10.48 17.0513 11.3013 17.3926 12.2826C17.7553 13.2426 17.9366 14.3733 17.9366 15.6746C17.9366 16.912 17.7339 18.032 17.3285 19.0346C16.9232 20.0373 16.3472 20.8906 15.6005 21.5946C14.8538 22.2986 13.9472 22.8426 12.8805 23.2266C11.8138 23.6106 10.6191 23.8026 9.29647 23.8026Z" fill="white"/>
<path d="M29.4677 23.8026C28.2091 23.8026 27.0357 23.6 25.9477 23.1946C24.8597 22.768 23.9104 22.096 23.0998 21.1786C22.2891 20.2613 21.6491 19.0666 21.1798 17.5946C20.7318 16.1013 20.5078 14.2986 20.5079 12.1866L20.5079 11.5466C20.5079 9.58395 20.7319 7.90929 21.1799 6.52262C21.6493 5.13595 22.2893 4.00529 23.1 3.13062C23.9107 2.23462 24.86 1.58395 25.948 1.17862C27.036 0.773285 28.2093 0.570618 29.468 0.570618C30.7267 0.570618 31.9 0.773285 32.988 1.17862C34.076 1.58395 35.0253 2.23462 35.836 3.13062C36.6466 4.00529 37.276 5.13595 37.7239 6.52262C38.1933 7.90929 38.4279 9.58395 38.4279 11.5466L38.4279 12.1866C38.4278 14.2986 38.1932 16.1013 37.7238 17.5946C37.2758 19.0666 36.6464 20.2613 35.8358 21.1786C35.0251 22.096 34.0757 22.768 32.9877 23.1946C31.8997 23.6 30.7264 23.8026 29.4677 23.8026ZM29.4678 19.0666C29.8944 19.0666 30.2998 18.96 30.6838 18.7466C31.0891 18.5333 31.4305 18.1706 31.7078 17.6586C32.0065 17.1253 32.2411 16.4213 32.4118 15.5466C32.5825 14.6506 32.6679 13.5306 32.6679 12.1866L32.6679 11.5466C32.6679 10.3733 32.5826 9.39195 32.4119 8.60262C32.2413 7.79195 32.0066 7.14129 31.7079 6.65062C31.4306 6.15995 31.0893 5.81862 30.6839 5.62662C30.3 5.41329 29.8946 5.30662 29.468 5.30662C29.0413 5.30662 28.6253 5.41329 28.2199 5.62662C27.8359 5.81862 27.4946 6.15995 27.1959 6.65062C26.9186 7.14129 26.6946 7.79195 26.5239 8.60262C26.3532 9.39195 26.2679 10.3733 26.2679 11.5466L26.2679 12.1866C26.2678 13.5306 26.3532 14.6506 26.5238 15.5466C26.6945 16.4213 26.9185 17.1253 27.1958 17.6586C27.4945 18.1706 27.8358 18.5333 28.2198 18.7466C28.6251 18.96 29.0411 19.0666 29.4678 19.0666Z" fill="white"/>
<path d="M50.2802 23.8026C49.0216 23.8026 47.8482 23.6 46.7602 23.1946C45.6722 22.768 44.7229 22.096 43.9123 21.1786C43.1016 20.2613 42.4616 19.0666 41.9923 17.5946C41.5443 16.1013 41.3203 14.2986 41.3204 12.1866L41.3204 11.5466C41.3204 9.58395 41.5444 7.90929 41.9924 6.52262C42.4618 5.13595 43.1018 4.00529 43.9125 3.13062C44.7232 2.23462 45.6725 1.58395 46.7605 1.17862C47.8485 0.773285 49.0218 0.570618 50.2805 0.570618C51.5392 0.570618 52.7125 0.773285 53.8005 1.17862C54.8885 1.58395 55.8378 2.23462 56.6485 3.13062C57.4591 4.00529 58.0885 5.13595 58.5364 6.52262C59.0058 7.90929 59.2404 9.58395 59.2404 11.5466L59.2404 12.1866C59.2403 14.2986 59.0057 16.1013 58.5363 17.5946C58.0883 19.0666 57.4589 20.2613 56.6483 21.1786C55.8376 22.096 54.8882 22.768 53.8002 23.1946C52.7122 23.6 51.5389 23.8026 50.2802 23.8026ZM50.2803 19.0666C50.7069 19.0666 51.1123 18.96 51.4963 18.7466C51.9016 18.5333 52.243 18.1706 52.5203 17.6586C52.819 17.1253 53.0537 16.4213 53.2243 15.5466C53.395 14.6506 53.4804 13.5306 53.4804 12.1866L53.4804 11.5466C53.4804 10.3733 53.3951 9.39195 53.2244 8.60262C53.0538 7.79195 52.8191 7.14129 52.5204 6.65062C52.2431 6.15995 51.9018 5.81862 51.4964 5.62662C51.1125 5.41329 50.7071 5.30662 50.2805 5.30662C49.8538 5.30662 49.4378 5.41329 49.0324 5.62662C48.6484 5.81862 48.3071 6.15995 48.0084 6.65062C47.7311 7.14129 47.5071 7.79195 47.3364 8.60262C47.1657 9.39195 47.0804 10.3733 47.0804 11.5466L47.0804 12.1866C47.0804 13.5306 47.1657 14.6506 47.3363 15.5466C47.507 16.4213 47.731 17.1253 48.0083 17.6586C48.307 18.1706 48.6483 18.5333 49.0323 18.7466C49.4376 18.96 49.8536 19.0666 50.2803 19.0666Z" fill="white"/>
<path d="M71.0927 23.8026C69.8341 23.8026 68.6607 23.6 67.5727 23.1946C66.4847 22.768 65.5354 22.096 64.7248 21.1786C63.9141 20.2613 63.2741 19.0666 62.8048 17.5946C62.3568 16.1013 62.1328 14.2986 62.1329 12.1866L62.1329 11.5466C62.1329 9.58395 62.3569 7.90929 62.8049 6.52262C63.2743 5.13595 63.9143 4.00529 64.725 3.13062C65.5357 2.23462 66.485 1.58395 67.573 1.17862C68.661 0.773285 69.8343 0.570618 71.093 0.570618C72.3517 0.570618 73.525 0.773285 74.613 1.17862C75.701 1.58395 76.6503 2.23462 77.461 3.13062C78.2716 4.00529 78.901 5.13595 79.3489 6.52262C79.8183 7.90929 80.0529 9.58395 80.0529 11.5466L80.0529 12.1866C80.0528 14.2986 79.8182 16.1013 79.3488 17.5946C78.9008 19.0666 78.2714 20.2613 77.4608 21.1786C76.6501 22.096 75.7007 22.768 74.6127 23.1946C73.5247 23.6 72.3514 23.8026 71.0927 23.8026ZM71.0928 19.0666C71.5195 19.0666 71.9248 18.96 72.3088 18.7466C72.7141 18.5333 73.0555 18.1706 73.3328 17.6586C73.6315 17.1253 73.8662 16.4213 74.0368 15.5466C74.2075 14.6506 74.2928 13.5306 74.2929 12.1866L74.2929 11.5466C74.2929 10.3733 74.2076 9.39195 74.0369 8.60262C73.8663 7.79195 73.6316 7.14129 73.3329 6.65062C73.0556 6.15995 72.7143 5.81862 72.3089 5.62662C71.925 5.41329 71.5196 5.30662 71.093 5.30662C70.6663 5.30662 70.2503 5.41329 69.845 5.62662C69.4609 5.81862 69.1196 6.15995 68.8209 6.65062C68.5436 7.14129 68.3196 7.79195 68.1489 8.60262C67.9782 9.39195 67.8929 10.3733 67.8929 11.5466L67.8929 12.1866C67.8929 13.5306 67.9782 14.6506 68.1488 15.5466C68.3195 16.4213 68.5435 17.1253 68.8208 17.6586C69.1195 18.1706 69.4608 18.5333 69.8448 18.7466C70.2501 18.96 70.6661 19.0666 71.0928 19.0666Z" fill="white"/>
</svg>

<svg width="81" height="24" fill="none" xmlns="http://www.w3.org/2000/svg"><path d="M9.296 23.803c-1.536 0-2.826-.192-3.872-.576-1.045-.406-1.898-.939-2.56-1.6a6.113 6.113 0 0 1-1.407-2.304 9.506 9.506 0 0 1-.48-2.816h5.568c.042.853.309 1.546.8 2.08.49.512 1.14.768 1.952.768 1.002 0 1.717-.31 2.143-.928.449-.64.673-1.536.673-2.688 0-1.216-.267-2.059-.8-2.528-.534-.491-1.206-.736-2.016-.736-1.131 0-2.006.437-2.624 1.312H1.457V.987h15.232V5.69H6.993v3.136c.896-.662 2.122-.992 3.68-.992 1.066 0 2.048.17 2.944.512.896.32 1.664.81 2.304 1.472.64.661 1.13 1.482 1.472 2.464.362.96.544 2.09.544 3.392 0 1.237-.203 2.357-.609 3.36a7.148 7.148 0 0 1-1.727 2.56c-.747.704-1.654 1.248-2.72 1.632-1.067.384-2.262.576-3.585.576ZM29.468 23.803c-1.259 0-2.432-.203-3.52-.608a7.34 7.34 0 0 1-2.848-2.016c-.81-.918-1.45-2.112-1.92-3.584-.448-1.494-.672-3.296-.672-5.408v-.64c0-1.963.224-3.638.672-5.024.47-1.387 1.11-2.518 1.92-3.392a7.182 7.182 0 0 1 2.848-1.952C27.036.773 28.209.57 29.468.57s2.432.202 3.52.608a7.182 7.182 0 0 1 2.848 1.952c.81.874 1.44 2.005 1.888 3.392.47 1.386.704 3.061.704 5.024v.64c0 2.112-.235 3.914-.704 5.408-.448 1.472-1.078 2.666-1.888 3.584a7.341 7.341 0 0 1-2.848 2.016c-1.088.405-2.262.608-3.52.608Zm0-4.736c.426 0 .832-.107 1.216-.32.405-.214.746-.576 1.024-1.088.299-.534.533-1.238.704-2.112.17-.896.256-2.016.256-3.36v-.64c0-1.174-.085-2.155-.256-2.944-.17-.811-.405-1.462-.704-1.952-.277-.491-.619-.832-1.024-1.024a2.467 2.467 0 0 0-1.216-.32 2.65 2.65 0 0 0-1.248.32c-.384.192-.725.533-1.024 1.024-.277.49-.501 1.141-.672 1.952-.17.789-.256 1.77-.256 2.944v.64c0 1.344.085 2.464.256 3.36.17.874.395 1.578.672 2.112.298.512.64.874 1.024 1.088.405.213.821.32 1.248.32ZM50.28 23.803c-1.258 0-2.432-.203-3.52-.608a7.34 7.34 0 0 1-2.848-2.016c-.81-.918-1.45-2.112-1.92-3.584-.448-1.494-.672-3.296-.672-5.408v-.64c0-1.963.224-3.638.672-5.024.47-1.387 1.11-2.518 1.92-3.392a7.182 7.182 0 0 1 2.849-1.952C47.848.773 49.02.57 50.28.57c1.258 0 2.431.202 3.52.608a7.182 7.182 0 0 1 2.847 1.952c.811.874 1.44 2.005 1.888 3.392.47 1.386.704 3.061.704 5.024v.64c0 2.112-.234 3.914-.704 5.408-.448 1.472-1.077 2.666-1.888 3.584a7.341 7.341 0 0 1-2.848 2.016c-1.088.405-2.261.608-3.52.608Zm0-4.736c.427 0 .832-.107 1.216-.32.406-.214.747-.576 1.024-1.088.299-.534.534-1.238.704-2.112.171-.896.256-2.016.256-3.36v-.64c0-1.174-.085-2.155-.256-2.944-.17-.811-.405-1.462-.704-1.952-.277-.491-.618-.832-1.024-1.024a2.467 2.467 0 0 0-1.215-.32 2.65 2.65 0 0 0-1.249.32c-.384.192-.725.533-1.024 1.024-.277.49-.5 1.141-.672 1.952-.17.789-.256 1.77-.256 2.944v.64c0 1.344.086 2.464.256 3.36.171.874.395 1.578.672 2.112.299.512.64.874 1.024 1.088.406.213.822.32 1.248.32ZM71.093 23.803c-1.259 0-2.432-.203-3.52-.608a7.34 7.34 0 0 1-2.848-2.016c-.81-.918-1.45-2.112-1.92-3.584-.448-1.494-.672-3.296-.672-5.408v-.64c0-1.963.224-3.638.672-5.024.47-1.387 1.11-2.518 1.92-3.392a7.182 7.182 0 0 1 2.848-1.952C68.661.773 69.834.57 71.093.57s2.432.202 3.52.608a7.182 7.182 0 0 1 2.848 1.952c.81.874 1.44 2.005 1.888 3.392.47 1.386.704 3.061.704 5.024v.64c0 2.112-.235 3.914-.704 5.408-.448 1.472-1.078 2.666-1.888 3.584a7.341 7.341 0 0 1-2.848 2.016c-1.088.405-2.262.608-3.52.608Zm0-4.736c.426 0 .832-.107 1.216-.32.405-.214.746-.576 1.024-1.088.299-.534.533-1.238.704-2.112.17-.896.256-2.016.256-3.36v-.64c0-1.174-.085-2.155-.256-2.944-.17-.811-.405-1.462-.704-1.952-.277-.491-.619-.832-1.024-1.024a2.467 2.467 0 0 0-1.216-.32 2.65 2.65 0 0 0-1.248.32c-.384.192-.725.533-1.024 1.024-.277.49-.501 1.141-.672 1.952-.17.789-.256 1.77-.256 2.944v.64c0 1.344.085 2.464.256 3.36.17.874.394 1.578.672 2.112.299.512.64.874 1.024 1.088.405.213.821.32 1.248.32Z" fill="#fff"/></svg>
